images/logos/logo.svg

<?xml version="1.0" encoding="utf-8"?>
<!-- Generator: Adobe Illustrator 22.1.0, SVG Export Plug-In . SVG Version: 6.00 Build 0)  -->
<svg version="1.1" id="Layer_1" xmlns="http://www.w3.org/2000/svg" xmlns:xlink="http://www.w3.org/1999/xlink" x="0px" y="0px"
	 viewBox="0 0 668.7 188.2" style="enable-background:new 0 0 668.7 188.2;" xml:space="preserve">
<style type="text/css">
	.st0{fill:#004D40;}
	.st1{fill:#E65100;}
	.st2{fill:#FF9800;}
	.st3{fill:#009688;}
	.st4{fill:none;}
	.st5{fill:#307ABD;}
	.st6{fill:#306BA4;}
</style>
<g id="Layer_x0020_1">
	<g id="_2777238904016">
		<polygon class="st0" points="2.6,158.3 14.9,145.9 14.6,170.1 		"/>
		<polygon class="st1" points="35.7,133.7 48,121.3 58.1,131.2 45.9,143.7 		"/>
		<polygon class="st1" points="5,102.9 17.3,90.5 27.4,100.5 15.2,112.9 		"/>
		<polygon class="st0" points="35,81 47.3,68.6 57.4,78.6 45.2,91 		"/>
		<polygon class="st0" points="4.4,50.4 8,29.4 26.8,47.9 14.5,60.4 		"/>
		<path class="st2" d="M11.9,71c10.6-10.8,29.5-29.1,47.8-47.8c4.2,4.1,3.4,21.3-6.7,31.7c-10.5,10.7-29.6,29.4-48,48
			C0.8,98.9,1.8,81.4,11.9,71z"/>
		<path class="st3" d="M9.6,126.4C20.2,115.6,39,97.2,57.4,78.6c4.2,4.1,3.4,21.3-6.7,31.7C40.1,121,21,139.6,2.6,158.3
			C-1.5,154.2-0.5,136.8,9.6,126.4z"/>
		<path class="st2" d="M33,156.5c10.6-10.8,6.8-6.6,25.2-25.2c4.1,4.1,3.4,21.3-6.7,31.7c-10.6,10.7-7.1,6.8-25.5,25.5
			C21.9,184.4,22.8,166.9,33,156.5z"/>
		<path class="st3" d="M112.4,95.7c5.1,3.5,9.3,7.9,12.7,13.5c3.4,5.6,5,12.3,5,20.2c0,8.2-1.8,15.2-5.3,21.2s-8.1,10.9-13.8,14.7
			c-11.6,8-26.1,11.6-40.1,11.5c-6.7,0-24-7.3-9.1-9.8c26.6,0,37.7-17,37.7-42c0-10.3-3.4-18.8-10.4-25.4
			C80.3,91.2,69,86.8,68.7,84.2c-0.8-7,9-9.3,13.8-15c6.7-7.8,8.1-16.5,8.1-26.5c0-9.6-2.6-17.2-7.9-22.6C53-3,6.8,24.6,4.4,50.4
			C-3.9,34.1,10.3,8.3,42.5,2c31-6.1,63.9,5.5,73.3,20.4c3.1,5,4.7,10.9,4.7,18c0,11.4-3.9,21.4-12.7,28.8c-8,7-18.5,11.4-28.8,13.6
			v1.1c5,0.5,10.6,1.8,16.8,3.7C102.1,89.6,107.6,92.3,112.4,95.7z"/>
	</g>
	<path d="M182.2,118.3v26.2h16.1c5.9,0,10.2-1,12.9-3.1s4.1-5.3,4.1-9.8c0-4.6-1.5-8-4.6-10.1c-3-2.2-7.8-3.3-14.3-3.3h-14.2V118.3z
		 M170.1,155.6V71.1h24.8c8.4,0,14.9,1.9,19.5,5.7c4.6,3.8,6.9,9.3,6.9,16.3c0,4.3-1,8-3.1,10.9s-5.2,5.1-9.4,6.7
		c6.2,1.4,10.9,4.1,14.3,7.9c3.4,3.8,5,8.5,5,13.9c0,7-2.6,12.6-7.7,16.8s-12.1,6.2-20.9,6.2h-29.4L170.1,155.6L170.1,155.6z
		 M182.2,107.3h8.2c6.2,0,10.7-1.1,13.7-3.3c3-2.2,4.5-5.6,4.5-10.1c0-4.1-1.2-7.2-3.5-9.1c-2.4-1.9-6.1-2.8-11.3-2.8h-11.5
		L182.2,107.3L182.2,107.3z"/>
	<path id="_x31__1_" d="M239.5,83.3c0-1.8,0.6-3.3,1.8-4.5s2.7-1.8,4.5-1.8s3.3,0.6,4.5,1.8c1.2,1.2,1.8,2.7,1.8,4.5
		s-0.6,3.3-1.8,4.5s-2.7,1.8-4.5,1.8s-3.3-0.6-4.5-1.8S239.5,85.1,239.5,83.3z M240.2,155.6V99.8h11.1v55.8H240.2z"/>
	<path id="_x32__1_" d="M274,127.6c0,5.2,1.8,9.6,5.2,13.3c3.5,3.7,7.7,5.5,12.7,5.5c4.9,0,9.1-1.8,12.7-5.5
		c3.5-3.7,5.3-8.1,5.3-13.3c0-5.1-1.8-9.5-5.3-13.2s-7.7-5.5-12.7-5.5s-9.2,1.8-12.7,5.5C275.8,118.1,274,122.5,274,127.6z
		 M262.3,127.6c0-8.1,2.9-15,8.6-20.6c5.8-5.6,12.8-8.4,21.1-8.4c3.9,0,7.7,0.7,11.2,2.2c3.6,1.4,6.7,3.6,9.6,6.3
		c2.9,2.9,5,6.1,6.5,9.6s2.2,7.1,2.2,11c0,3.8-0.8,7.5-2.3,11.2c-1.6,3.6-3.7,6.8-6.5,9.5s-6,4.8-9.5,6.3c-3.5,1.4-7.3,2.1-11.3,2.1
		c-8.3,0-15.3-2.8-21.1-8.5S262.3,135.7,262.3,127.6z"/>
	<polygon id="_x33__1_" points="334.1,155.6 334.1,71.1 344.7,71.1 375.1,106.6 405.6,71.1 416.1,71.1 416.1,155.6 404.3,155.6 
		404.3,89.6 375.1,123.7 345.9,89.6 345.9,155.6 	"/>
	<polygon id="_x34_" points="434.5,155.6 434.5,71.1 446.7,71.1 446.7,155.6 	"/>
	<path id="_x35_" d="M537.1,135.5v13.6c-4.9,2.6-10,4.5-15.1,5.9c-5.1,1.3-10.2,2-15.3,2c-4.8,0-9.5-0.7-13.9-1.9
		c-4.4-1.3-8.5-3.1-12.4-5.6c-6.3-4.1-11.2-9.4-14.7-15.8s-5.2-13.3-5.2-20.8c0-5.7,1.2-11.2,3.5-16.5s5.6-10,9.8-14
		c4.5-4.3,9.6-7.5,15.2-9.6s11.8-3.2,18.6-3.2c4.8,0,9.5,0.5,14.1,1.6c4.7,1.1,9.6,2.8,14.7,5.2v13.2c-5.4-2.9-10.4-5.1-15.1-6.5
		c-4.7-1.4-9.3-2.1-13.7-2.1c-9.9,0-18,3.1-24.5,9.2c-6.4,6.1-9.7,13.8-9.7,23.1c0,9.2,3.2,16.8,9.5,22.9c6.3,6.1,14.3,9.2,23.9,9.2
		c4.9,0,9.9-0.8,14.9-2.5C526.8,141.4,531.9,138.9,537.1,135.5z"/>
	<g id="_2777238902928">
		<path d="M188.4,32.5v15.3c0,4.8-3.2,7.7-9.1,7.7c-5.9,0-9.1-2.9-9.1-7.7V32.5c0-0.5,0.4-0.7,1.4-0.7h0.3c0.9,0,1.3,0.3,1.3,0.7
			v15.4c0,2.9,2.6,5,6.2,5c3.6,0,6.2-2.1,6.2-5V32.5c0-0.5,0.4-0.7,1.3-0.7h0.3C188,31.8,188.4,32.1,188.4,32.5z"/>
		<path d="M233,33.7c0,0.6-0.7,1.9-1.1,1.9c-0.4,0-2-1.5-5.2-1.5c-5.9,0-7.9,3.5-7.9,9.3c0,5.1,1.5,9.5,7.5,9.5
			c1.7,0,3.4-0.2,4.3-0.5v-6.7h-3.9c-0.5,0-0.7-0.3-0.7-1v-0.5c0-0.7,0.2-1,0.7-1h5.8c0.7,0,1,0.3,1,1V53c0,1.9-3.6,2.4-7.4,2.4
			c-6.7,0-10.3-3.7-10.3-11.7c0-8.3,3.8-12.1,10.8-12.1C229.9,31.7,233,32.8,233,33.7z"/>
		<path d="M284.3,32.5v22.1c0,0.5-0.4,0.7-1.3,0.7h-0.2c-0.9,0-1.3-0.3-1.3-0.7v-18l-0.1,0.1l-6.7,11.6l-0.7,0.4h-1.3l-0.7-0.4
			l-6.7-11.8l-0.1-0.1v18.2c0,0.5-0.4,0.7-1.4,0.7h-0.2c-0.9,0-1.3-0.3-1.3-0.7V32.5c0-0.5,0.4-0.7,1.3-0.7h1.2
			c0.8,0,1.2,0.3,1.4,0.6l6.3,10.9l0.9,2.1l0.9-1.9l6.3-11.1c0.2-0.4,0.6-0.6,1.4-0.6h1.1C283.9,31.8,284.3,32.1,284.3,32.5z"/>
	</g>
</g>
<g id="Layer_x0020_1_1_">
	<g id="_1916240767312">
		<path class="st4" d="M71.8-8.8"/>
		<path class="st5" d="M71.8-8.8"/>
		<path class="st6" d="M71.8-8.8"/>
		<path d="M556.2,159.8v-5.5c0-1.7,0.1-3,0.4-4c0.2-0.9,0.6-1.8,1.2-2.5c0.6-0.6,1.3-1.2,2.2-1.7s2.3-0.9,4.2-1.5l7.2-2
			c1.2-0.3,2.1-0.6,2.8-0.9c0.7-0.4,1.2-0.8,1.4-1.2c0.2-0.2,0.4-0.6,0.4-1.2c0.1-0.5,0.1-1.5,0.1-3c0-1.6-0.1-2.7-0.3-3.3
			c-0.2-0.6-0.6-1.1-1.1-1.4c-0.4-0.4-1.3-0.6-2.5-0.7c-1.3-0.1-3.1-0.2-5.4-0.2c-3,0-5,0.3-5.8,1c-0.9,0.6-1.3,2.1-1.3,4.3v1.9H556
			v-2.1c0-3.2,0.8-5.4,2.3-6.6c1.5-1.2,4.5-1.8,8.8-1.8c2.4,0,4.3,0.1,5.6,0.1c1.2,0.1,2.2,0.4,2.8,0.6c1.5,0.6,2.6,1.6,3.2,2.7
			c0.6,1.1,0.9,3,0.9,5.8c0,3-0.4,5.1-1.4,6.3c-0.9,1.2-2.5,2.2-5,2.8l-9,2.5c-1.9,0.6-3.2,1.2-3.7,1.8c-0.6,0.6-0.9,1.6-0.9,2.8
			v3.5h19.9v3.4L556.2,159.8L556.2,159.8L556.2,159.8z"/>
		<path id="_1" d="M596.3,156.8h2.8c1.7,0,3-0.1,3.7-0.4c0.8-0.2,1.4-0.6,1.9-1.1s0.9-1.2,1.1-2c0.2-0.8,0.3-2.2,0.3-4.2v-0.5v-10.2
			c0-2.1-0.1-3.5-0.3-4.3c-0.2-0.8-0.6-1.4-1.1-1.9c-0.5-0.6-1.2-0.9-2-1.2c-0.8-0.3-2-0.4-3.6-0.4h-2.8c-1.7,0-3,0.1-3.7,0.3
			c-0.8,0.2-1.4,0.6-1.9,1.2c-0.5,0.6-0.9,1.2-1,2c-0.2,0.8-0.4,2.2-0.4,4.3v0.5v10.2c0,2.1,0.1,3.5,0.4,4.3c0.1,0.8,0.5,1.5,1,2
			s1.2,0.9,1.9,1.1C593.4,156.8,594.6,156.8,596.3,156.8z M596.2,160.1c-3.9,0-6.6-0.8-8.1-2.4c-1.6-1.7-2.4-4.5-2.4-8.6v-10.9
			c0-4.1,0.8-6.9,2.4-8.6c1.5-1.6,4.2-2.4,8.1-2.4h3.1c3.9,0,6.6,0.8,8.2,2.4c1.5,1.7,2.3,4.5,2.3,8.6v10.9c0,4.1-0.8,7-2.3,8.6
			c-1.6,1.6-4.3,2.4-8.2,2.4H596.2z"/>
		<path d="M615.1,159.8v-5.5c0-1.7,0.1-3,0.4-4c0.2-0.9,0.6-1.8,1.2-2.5c0.6-0.6,1.3-1.2,2.2-1.7s2.3-0.9,4.2-1.5l7.2-2
			c1.2-0.3,2.1-0.6,2.8-0.9c0.7-0.4,1.2-0.8,1.4-1.2c0.2-0.2,0.4-0.6,0.4-1.2c0.1-0.5,0.1-1.5,0.1-3c0-1.6-0.1-2.7-0.3-3.3
			c-0.2-0.6-0.6-1.1-1.1-1.4c-0.4-0.4-1.3-0.6-2.5-0.7c-1.3-0.1-3.1-0.2-5.4-0.2c-3,0-5,0.3-5.8,1c-0.9,0.6-1.3,2.1-1.3,4.3v1.9
			h-3.7v-2.1c0-3.2,0.8-5.4,2.3-6.6c1.5-1.2,4.5-1.8,8.8-1.8c2.4,0,4.3,0.1,5.6,0.1c1.2,0.1,2.2,0.4,2.8,0.6
			c1.5,0.6,2.6,1.6,3.2,2.7c0.6,1.1,0.9,3,0.9,5.8c0,3-0.4,5.1-1.4,6.3c-0.9,1.2-2.5,2.2-5,2.8l-9,2.5c-1.9,0.6-3.2,1.2-3.7,1.8
			c-0.6,0.6-0.9,1.6-0.9,2.8v3.5h19.9v3.4L615.1,159.8L615.1,159.8L615.1,159.8z"/>
		<path id="_1_1_" d="M655.2,156.8h2.8c1.7,0,3-0.1,3.7-0.4c0.8-0.2,1.4-0.6,1.9-1.1s0.9-1.2,1.1-2s0.3-2.2,0.3-4.2v-0.5v-10.2
			c0-2.1-0.1-3.5-0.3-4.3s-0.6-1.4-1.1-1.9c-0.5-0.6-1.2-0.9-2-1.2c-0.8-0.3-2-0.4-3.6-0.4h-2.8c-1.7,0-3,0.1-3.7,0.3
			c-0.8,0.2-1.4,0.6-1.9,1.2c-0.5,0.5-0.9,1.2-1,2c-0.2,0.8-0.4,2.2-0.4,4.3v0.5v10.2c0,2.1,0.1,3.5,0.4,4.3c0.1,0.8,0.5,1.5,1,2
			s1.2,0.9,1.9,1.1C652.3,156.8,653.5,156.8,655.2,156.8z M655.1,160.1c-3.9,0-6.6-0.8-8.1-2.4c-1.6-1.7-2.4-4.5-2.4-8.6v-10.9
			c0-4.1,0.8-6.9,2.4-8.6c1.5-1.6,4.2-2.4,8.1-2.4h3.1c3.9,0,6.6,0.8,8.2,2.4c1.5,1.7,2.3,4.5,2.3,8.6v10.9c0,4.1-0.8,7-2.3,8.6
			c-1.6,1.6-4.3,2.4-8.2,2.4H655.1z"/>
	</g>
</g>
</svg>

<svg width="538" height="189" viewBox="0 0 538 189" fill="none" xmlns="http://www.w3.org/2000/svg">
<path d="M2.60001 158.3L14.9 145.9L14.6 170.1L2.60001 158.3Z" fill="#004D40"/>
<path d="M35.7 133.7L48 121.3L58.1 131.2L45.9 143.7L35.7 133.7Z" fill="#E65100"/>
<path d="M5 102.9L17.3 90.5L27.4 100.5L15.2 112.9L5 102.9Z" fill="#E65100"/>
<path d="M35 81L47.3 68.6L57.4 78.6L45.2 91L35 81Z" fill="#004D40"/>
<path d="M4.4 50.4L8 29.4L26.8 47.9L14.5 60.4L4.4 50.4Z" fill="#004D40"/>
<path d="M11.9 71C22.5 60.2 41.4 41.9 59.7 23.2C63.9 27.3 63.1 44.5 53 54.9C42.5 65.6 23.4 84.3 5 102.9C0.800002 98.9 1.8 81.4 11.9 71Z" fill="#FF9800"/>
<path d="M9.6 126.4C20.2 115.6 39 97.2 57.4 78.6C61.6 82.7 60.8 99.9 50.7 110.3C40.1 121 21 139.6 2.6 158.3C-1.5 154.2 -0.499997 136.8 9.6 126.4Z" fill="#009688"/>
<path d="M33 156.5C43.6 145.7 39.8 149.9 58.2 131.3C62.3 135.4 61.6 152.6 51.5 163C40.9 173.7 44.4 169.8 26 188.5C21.9 184.4 22.8 166.9 33 156.5Z" fill="#FF9800"/>
<path d="M112.4 95.7C117.5 99.2 121.7 103.6 125.1 109.2C128.5 114.8 130.1 121.5 130.1 129.4C130.1 137.6 128.3 144.6 124.8 150.6C121.3 156.6 116.7 161.5 111 165.3C99.4 173.3 84.9 176.9 70.9 176.8C64.2 176.8 46.9 169.5 61.8 167C88.4 167 99.5 150 99.5 125C99.5 114.7 96.1 106.2 89.1 99.6C80.3 91.2 69 86.8 68.7 84.2C67.9 77.2 77.7 74.9 82.5 69.2C89.2 61.4 90.6 52.7 90.6 42.7C90.6 33.1 88 25.5 82.7 20.1C53 -3 6.8 24.6 4.4 50.4C-3.9 34.1 10.3 8.3 42.5 2C73.5 -4.1 106.4 7.5 115.8 22.4C118.9 27.4 120.5 33.3 120.5 40.4C120.5 51.8 116.6 61.8 107.8 69.2C99.8 76.2 89.3 80.6 79 82.8V83.9C84 84.4 89.6 85.7 95.8 87.6C102.1 89.6 107.6 92.3 112.4 95.7Z" fill="#009688"/>
<path d="M182.2 118.3V144.5H198.3C204.2 144.5 208.5 143.5 211.2 141.4C213.9 139.3 215.3 136.1 215.3 131.6C215.3 127 213.8 123.6 210.7 121.5C207.7 119.3 202.9 118.2 196.4 118.2H182.2V118.3ZM170.1 155.6V71.1H194.9C203.3 71.1 209.8 73 214.4 76.8C219 80.6 221.3 86.1 221.3 93.1C221.3 97.4 220.3 101.1 218.2 104C216.1 106.9 213 109.1 208.8 110.7C215 112.1 219.7 114.8 223.1 118.6C226.5 122.4 228.1 127.1 228.1 132.5C228.1 139.5 225.5 145.1 220.4 149.3C215.3 153.5 208.3 155.5 199.5 155.5H170.1V155.6ZM182.2 107.3H190.4C196.6 107.3 201.1 106.2 204.1 104C207.1 101.8 208.6 98.4 208.6 93.9C208.6 89.8 207.4 86.7 205.1 84.8C202.7 82.9 199 82 193.8 82H182.3L182.2 107.3Z" fill="black"/>
<path d="M239.5 83.3C239.5 81.5 240.1 80 241.3 78.8C242.5 77.6 244 77 245.8 77C247.6 77 249.1 77.6 250.3 78.8C251.5 80 252.1 81.5 252.1 83.3C252.1 85.1 251.5 86.6 250.3 87.8C249.1 89 247.6 89.6 245.8 89.6C244 89.6 242.5 89 241.3 87.8C240.1 86.6 239.5 85.1 239.5 83.3ZM240.2 155.6V99.8H251.3V155.6H240.2Z" fill="black"/>
<path d="M274 127.6C274 132.8 275.8 137.2 279.2 140.9C282.7 144.6 286.9 146.4 291.9 146.4C296.8 146.4 301 144.6 304.6 140.9C308.1 137.2 309.9 132.8 309.9 127.6C309.9 122.5 308.1 118.1 304.6 114.4C301.1 110.7 296.9 108.9 291.9 108.9C286.9 108.9 282.7 110.7 279.2 114.4C275.8 118.1 274 122.5 274 127.6ZM262.3 127.6C262.3 119.5 265.2 112.6 270.9 107C276.7 101.4 283.7 98.6 292 98.6C295.9 98.6 299.7 99.3 303.2 100.8C306.8 102.2 309.9 104.4 312.8 107.1C315.7 110 317.8 113.2 319.3 116.7C320.8 120.2 321.5 123.8 321.5 127.7C321.5 131.5 320.7 135.2 319.2 138.9C317.6 142.5 315.5 145.7 312.7 148.4C309.9 151.1 306.7 153.2 303.2 154.7C299.7 156.1 295.9 156.8 291.9 156.8C283.6 156.8 276.6 154 270.8 148.3C265 142.6 262.3 135.7 262.3 127.6Z" fill="black"/>
<path d="M334.1 155.6V71.1H344.7L375.1 106.6L405.6 71.1H416.1V155.6H404.3V89.6L375.1 123.7L345.9 89.6V155.6H334.1Z" fill="black"/>
<path d="M434.5 155.6V71.1H446.7V155.6H434.5Z" fill="black"/>
<path d="M537.1 135.5V149.1C532.2 151.7 527.1 153.6 522 155C516.9 156.3 511.8 157 506.7 157C501.9 157 497.2 156.3 492.8 155.1C488.4 153.8 484.3 152 480.4 149.5C474.1 145.4 469.2 140.1 465.7 133.7C462.2 127.3 460.5 120.4 460.5 112.9C460.5 107.2 461.7 101.7 464 96.4C466.3 91.1 469.6 86.4 473.8 82.4C478.3 78.1 483.4 74.9 489 72.8C494.6 70.7 500.8 69.6 507.6 69.6C512.4 69.6 517.1 70.1 521.7 71.2C526.4 72.3 531.3 74 536.4 76.4V89.6C531 86.7 526 84.5 521.3 83.1C516.6 81.7 512 81 507.6 81C497.7 81 489.6 84.1 483.1 90.2C476.7 96.3 473.4 104 473.4 113.3C473.4 122.5 476.6 130.1 482.9 136.2C489.2 142.3 497.2 145.4 506.8 145.4C511.7 145.4 516.7 144.6 521.7 142.9C526.8 141.4 531.9 138.9 537.1 135.5Z" fill="black"/>
<path d="M188.4 32.5V47.8C188.4 52.6 185.2 55.5 179.3 55.5C173.4 55.5 170.2 52.6 170.2 47.8V32.5C170.2 32 170.6 31.8 171.6 31.8H171.9C172.8 31.8 173.2 32.1 173.2 32.5V47.9C173.2 50.8 175.8 52.9 179.4 52.9C183 52.9 185.6 50.8 185.6 47.9V32.5C185.6 32 186 31.8 186.9 31.8H187.2C188 31.8 188.4 32.1 188.4 32.5Z" fill="black"/>
<path d="M233 33.7C233 34.3 232.3 35.6 231.9 35.6C231.5 35.6 229.9 34.1 226.7 34.1C220.8 34.1 218.8 37.6 218.8 43.4C218.8 48.5 220.3 52.9 226.3 52.9C228 52.9 229.7 52.7 230.6 52.4V45.7H226.7C226.2 45.7 226 45.4 226 44.7V44.2C226 43.5 226.2 43.2 226.7 43.2H232.5C233.2 43.2 233.5 43.5 233.5 44.2V53C233.5 54.9 229.9 55.4 226.1 55.4C219.4 55.4 215.8 51.7 215.8 43.7C215.8 35.4 219.6 31.6 226.6 31.6C229.9 31.7 233 32.8 233 33.7Z" fill="black"/>
<path d="M284.3 32.5V54.6C284.3 55.1 283.9 55.3 283 55.3H282.8C281.9 55.3 281.5 55 281.5 54.6V36.6L281.4 36.7L274.7 48.3L274 48.7H272.7L272 48.3L265.3 36.5L265.2 36.4V54.6C265.2 55.1 264.8 55.3 263.8 55.3H263.6C262.7 55.3 262.3 55 262.3 54.6V32.5C262.3 32 262.7 31.8 263.6 31.8H264.8C265.6 31.8 266 32.1 266.2 32.4L272.5 43.3L273.4 45.4L274.3 43.5L280.6 32.4C280.8 32 281.2 31.8 282 31.8H283.1C283.9 31.8 284.3 32.1 284.3 32.5Z" fill="black"/>
</svg>
